Origami/16x16/apps/scout-app.svg

<svg width="16" height="16" version="1.1" viewBox="0 0 16 16" xmlns="http://www.w3.org/2000/svg">
 <g transform="matrix(1.049949 0 0 .9749585 -.39959195 .14321274)">
  <path d="m8 1.9044782c-0.3900842 0.00215-0.7646137 0.041811-1.1480655 0.1183036-2.827272 0.5496498-4.820975 2.3640903-4.1418392 5.3191966 0.3340316 1.4539124 0.8418583 2.3875722 1.153744 3.3154756 0.8267741 2.458649 0.7383954 3.721404 2.3236609 4.267113 0.6376362 0.217957 1.1527196 0.322523 1.8124998 0.313245 0.6597802 0.009276 1.1748636-0.095288 1.8124998-0.313245 1.5852652-0.545709 1.4968872-1.808464 2.3236612-4.267113 0.311885-0.9279034 0.629236-1.8615632 0.963268-3.3154756 0.679135-2.9551063-1.124091-4.7695468-3.9513635-5.3191966-0.3834518-0.0764922-0.7579813-0.1161512-1.1480655-0.1183036z" style="fill:#d7cec7"/>
  <path d="m9.1331844 2.0205497 0.01488 0.00223c2.6505686 0.5152965 4.8362486 2.1419888 4.5394356 4.7782738-0.02035 0.1759794-0.05085 0.3552685-0.09301 0.5386902-0.0032 0.013741-0.0072 0.025787-0.01042 0.039435-0.335035 1.4133209-1.116296 2.3345692-1.433771 3.2425613-2.075375-0.6729121-3.1978718-2.7882599-3.1978718-5.4702378-0.0041257-1.0251817-0.2670451-2.1993653 0.1807572-3.1309525z" style="fill:#de8c4a"/>
  <path d="m 6.8668156,2.0205497 -0.01488,0.00223 C 4.2013669,2.5380785 2.0156872,4.1647708 2.3125,6.8010558 2.332854,6.9770352 2.363352,7.1563243 2.405506,7.339746 2.408666,7.353487 2.412716,7.365533 2.415923,7.379181 2.7509665,8.7924996 3.5322278,9.7137479 3.8497025,10.62174 5.9250758,9.9488279 7.0475727,7.8334801 7.0475727,5.1515022 7.0517,4.1263205 7.3146179,2.9521369 6.8668156,2.0205497 Z" style="fill:#de8c4a"/>
 </g>
 <path d="m7.6328124 10.952098c-0.3496115 0-0.6328124 0.338241-0.6328124 0.755859 0 0.421918 0.6513759 1.24414 0.9999999 1.24414 0.3486241 0 1.0000001-0.822222 1.0000001-1.24414 0-0.417618-0.283201-0.755859-0.6328126-0.755859h-0.3671875-0.3671875z" style="fill:#3f3f3f"/>
 <circle cx="5" cy="8" r="1" style="fill:#3f3f3f"/>
 <circle cx="4.75" cy="7.75" r=".25" style="fill:#ffffff"/>
 <path d="M 9,14 C 9,14.552284 8.5522845,15 7.9999999,15 7.4477154,15 7,14.552284 7,14 c 0,-0.119005 0.02079,-0.0328 0.05893,-0.138657 0.1388705,-0.385425 0.4873611,-0.170686 0.9206406,-0.170686 0.4328214,0 0.8218485,-0.215321 0.9610579,0.169466 C 8.9790515,13.96633 8.9999995,13.880536 9,14 Z" style="fill:#d86f6f"/>
 <path d="m 6.0952381,13.25 c 0,0 0.5098713,0.372962 0.952381,0.490476 C 7.3220518,13.813356 8,13.5 8,13.5 c 0,0 0.6779482,0.313356 0.952381,0.240476 C 9.3948907,13.622962 9.9047619,13.25 9.9047619,13.25" style="fill:none;stroke-linecap:round;stroke-linejoin:round;stroke-width:.5;stroke:#79431b"/>
 <path d="m5.2459355 3.2377145s1.4075771-1.5588711 0.376512-2.0025528c-1.1549717-0.49700037-4.2412963-0.1830694-5.3177762 0.7233089-0.41091078 0.3366989-0.31533024 0.6287639-0.22993154 1.0276942 0.29552625 1.3800115 1.0617324 4.8998527 1.2120324 5.0109602 0.1870896 0.1383045 3.9591633-4.7594105 3.9591633-4.7594105z" style="fill:#86522b"/>
 <path d="m10.754064 3.2377145s-1.4075765-1.5588711-0.376511-2.0025528c1.154971-0.49700037 4.241296-0.1830694 5.317776 0.7233089 0.41091 0.3366989 0.31533 0.6287639 0.229931 1.0276942-0.295526 1.3800115-1.061732 4.8998527-1.212032 5.0109602-0.18709 0.1383045-3.959164-4.7594105-3.959164-4.7594105z" style="fill:#86522b"/>
 <g transform="translate(6)">
  <circle cx="5" cy="8" r="1" style="fill:#3f3f3f"/>
  <circle cx="4.75" cy="7.75" r=".25" style="fill:#ffffff"/>
 </g>
</svg>

<svg xmlns="http://www.w3.org/2000/svg" width="16" height="16" version="1.1" viewBox="0 0 16 16">
 <g transform="matrix(1.049949,0,0,0.9749585,-0.39959195,0.14321274)">
  <path style="fill:#d7cec7" d="m 8,1.9044782 c -0.3900842,0.00215 -0.7646137,0.041811 -1.1480655,0.1183036 -2.827272,0.5496498 -4.820975,2.3640903 -4.1418392,5.3191966 0.3340316,1.4539124 0.8418583,2.3875722 1.153744,3.3154756 0.8267741,2.458649 0.7383954,3.721404 2.3236609,4.267113 C 6.8251364,15.142524 7.3402198,15.24709 8,15.237812 8.6597802,15.247088 9.1748636,15.142524 9.8124998,14.924567 11.397765,14.378858 11.309387,13.116103 12.136161,10.657454 12.448046,9.7295506 12.765397,8.7958908 13.099429,7.3419784 13.778564,4.3868721 11.975338,2.5724316 9.1480655,2.0227818 8.7646137,1.9462896 8.3900842,1.9066306 8,1.9044782 Z"/>
  <path style="fill:#de8c4a" d="m 9.1331844,2.0205497 0.01488,0.00223 C 11.798633,2.5380762 13.984313,4.1647685 13.6875,6.8010535 13.66715,6.9770329 13.63665,7.156322 13.59449,7.3397437 c -0.0032,0.013741 -0.0072,0.025787 -0.01042,0.039435 C 13.249035,8.7924996 12.467774,9.7137479 12.150299,10.62174 10.074924,9.9488279 8.9524272,7.8334801 8.9524272,5.1515022 8.9483015,4.1263205 8.6853821,2.9521369 9.1331844,2.0205497 Z"/>
  <path style="fill:#de8c4a" d="m 6.8668156,2.0205497 -0.01488,0.00223 C 4.2013669,2.5380785 2.0156872,4.1647708 2.3125,6.8010558 2.332854,6.9770352 2.363352,7.1563243 2.405506,7.339746 2.408666,7.353487 2.412716,7.365533 2.415923,7.379181 2.7509665,8.7924996 3.5322278,9.7137479 3.8497025,10.62174 5.9250758,9.9488279 7.0475727,7.8334801 7.0475727,5.1515022 7.0517,4.1263205 7.3146179,2.9521369 6.8668156,2.0205497 Z"/>
 </g>
 <path style="fill:#3f3f3f" d="M 7.6328124,10.952098 C 7.2832009,10.952098 7,11.290339 7,11.707957 c 0,0.421918 0.6513759,1.24414 0.9999999,1.24414 C 8.348624,12.952097 9,12.129875 9,11.707957 9,11.290339 8.716799,10.952098 8.3671874,10.952098 l -0.3671875,0 -0.3671875,0 z"/>
 <g>
  <circle style="fill:#3f3f3f" cx="5" cy="8" r="1"/>
  <circle style="fill:#ffffff" cx="4.75" cy="7.75" r=".25"/>
 </g>
 <path style="fill:#d86f6f" d="M 9,14 C 9,14.552284 8.5522845,15 7.9999999,15 7.4477154,15 7,14.552284 7,14 c 0,-0.119005 0.02079,-0.0328 0.05893,-0.138657 0.1388705,-0.385425 0.4873611,-0.170686 0.9206406,-0.170686 0.4328214,0 0.8218485,-0.215321 0.9610579,0.169466 C 8.9790515,13.96633 8.9999995,13.880536 9,14 Z"/>
 <path style="fill:none;stroke:#79431b;stroke-width:0.5;stroke-linecap:round;stroke-linejoin:round" d="m 6.0952381,13.25 c 0,0 0.5098713,0.372962 0.952381,0.490476 C 7.3220518,13.813356 8,13.5 8,13.5 c 0,0 0.6779482,0.313356 0.952381,0.240476 C 9.3948907,13.622962 9.9047619,13.25 9.9047619,13.25"/>
 <path style="fill:#86522b" d="m 5.2459355,3.2377145 c 0,0 1.4075771,-1.5588711 0.376512,-2.0025528 C 4.4674758,0.73816133 1.3811512,1.0520923 0.30467132,1.9584706 -0.10623946,2.2951695 -0.01065892,2.5872345 0.07473978,2.9861648 0.37026603,4.3661763 1.1364722,7.8860175 1.2867722,7.997125 1.4738618,8.1354295 5.2459355,3.2377145 5.2459355,3.2377145 Z"/>
 <path style="fill:#86522b" d="m 10.754064,3.2377145 c 0,0 -1.4075765,-1.5588711 -0.376511,-2.0025528 1.154971,-0.49700037 4.241296,-0.1830694 5.317776,0.7233089 0.41091,0.3366989 0.31533,0.6287639 0.229931,1.0276942 -0.295526,1.3800115 -1.061732,4.8998527 -1.212032,5.0109602 -0.18709,0.1383045 -3.959164,-4.7594105 -3.959164,-4.7594105 z"/>
 <g transform="translate(6,0)">
  <circle style="fill:#3f3f3f" cx="5" cy="8" r="1"/>
  <circle style="fill:#ffffff" cx="4.75" cy="7.75" r=".25"/>
 </g>
</svg>
